public/img/linkedin.svg

<svg height="24" viewBox="0 0 24 24" width="24" xmlns="http://www.w3.org/2000/svg"><path d="m20.43 2h-16.94a1.44 1.44 0 0 0 -1.49 1.43v17.14a1.44 1.44 0 0 0 1.49 1.43h17a1.49 1.49 0 0 0 1.51-1.43v-17.14a1.56 1.56 0 0 0 -1.57-1.43zm-12.52 17.07h-2.91v-9.57h3v9.57zm-1.5-10.86a1.71 1.71 0 1 1 1.71-1.71 1.68 1.68 0 0 1 -1.71 1.71zm12.59 10.86h-2.91v-4.64c0-1.07 0-2.5-1.56-2.5s-1.78 1.21-1.78 2.43v4.71h-2.92v-9.57h2.85v1.29h.07a3.2 3.2 0 0 1 2.77-1.58c3 0 3.56 2 3.56 4.58v5.28z" fill="#0966c2"/></svg>

<svg id="e3363975-d172-4f89-b9a0-68b8526dab18" data-name="Layer 1" xmlns="http://www.w3.org/2000/svg" width="24" height="24" viewBox="0 0 24 24">
  <defs>
    <style>
      .e86f3a30-4f8b-432d-a286-7374af53d576 {
        fill: #0966c2;
      }
    </style>
  </defs>
  <path class="e86f3a30-4f8b-432d-a286-7374af53d576" d="M20.43,2H3.49A1.44,1.44,0,0,0,2,3.43V20.57A1.44,1.44,0,0,0,3.49,22h17A1.49,1.49,0,0,0,22,20.57V3.43A1.56,1.56,0,0,0,20.43,2ZM7.91,19.07H5V9.5H8v9.57ZM6.41,8.21A1.71,1.71,0,1,1,8.12,6.5,1.68,1.68,0,0,1,6.41,8.21ZM19,19.07H16.09V14.43c0-1.07,0-2.5-1.56-2.5s-1.78,1.21-1.78,2.43v4.71H9.83V9.5h2.85v1.29h.07a3.2,3.2,0,0,1,2.77-1.58c3,0,3.56,2,3.56,4.58v5.28Z"/>
</svg>
